X:9
T:Changing Times
C:Kevin McKeogh
K:Cmaj
M:none
M:4/4
L:1/8
"Am" e2 c2 A2 cA | "E7" BA^GA BcdB | "Dm" e2d2e2f2 | "E" fdcA B4 |
"Am" e2 c2 A2 cA | "E7" BA^GA Bcdc | "Dm" d2e2A2e2 | "E" edcB A4 ||
"Am" A2 AB c2 d2 | "E7" cBA^G AEcE | "Dm" A2cBA2d2 | "E" c^GAc B4 |
"Am" A2 AB c2 d2 | "E7" cBA^G ABcA | "Dm" c2cBA2d2 | "E" e^GAB A4 |]
